X: 14
T: Sporting Paddy
Z: leprecawn
S: https://thesession.org/tunes/430#setting48941
R: reel
M: 4/4
L: 1/8
K: Gmaj
EAAB GABG|EAAB G2ED|EAAB GABd|efge dBAG|
EAAB GABG|EAAB G2ED|EAA2 GABd|efge d2||
ef|ge e2 gede|ge e2 a2 ba|ge e2 ge d2|efge d2 ef|
g2 ef edBd|ge e2 a2 ga|bgaf gedB|efge dBAG||

